flutter/assets/chart.svg

<svg width="14" height="14" version="1.1" viewBox="0 0 3.7042 3.7042" xml:space="preserve" xmlns="http://www.w3.org/2000/svg"><g transform="translate(-111.99 -125.9)"><g transform="matrix(.26458 0 0 .26458 111.99 125.9)" clip-rule="evenodd" fill="#00c5ff" fill-rule="evenodd"><path d="m0 1c0-0.55228 0.44772-1 1-1 0.55228 0 1 0.44772 1 1v11h11c0.5523 0 1 0.4477 1 1s-0.4477 1-1 1h-13z"/><path d="m13 2.4999c0.4274 0.34972 0.4904 0.97975 0.1407 1.4072l-4.5665 5.5813-2.476-2.476-4.3056 5.5972-1.5852-1.2194 5.6944-7.4027 2.524 2.524 3.1671-3.8708c0.3497-0.42745 0.9797-0.49045 1.4072-0.14072z"/></g></g></svg>

<svg width="14" height="14" viewBox="0 0 14 14" fill="none" xmlns="http://www.w3.org/2000/svg">
<path fill-rule="evenodd" clip-rule="evenodd" d="M0 1C0 0.447715 0.447715 0 1 0V0C1.55228 0 2 0.447715 2 1V12H13C13.5523 12 14 12.4477 14 13V13C14 13.5523 13.5523 14 13 14H0V1Z" fill="#00C5FF"/>
<path fill-rule="evenodd" clip-rule="evenodd" d="M12.9997 2.49994C13.4271 2.84966 13.4901 3.47969 13.1404 3.90713L8.57389 9.48839L6.09788 7.01237L1.79228 12.6096L0.207031 11.3902L5.90143 3.9875L8.42542 6.51149L11.5925 2.64066C11.9422 2.21321 12.5722 2.15021 12.9997 2.49994V2.49994Z" fill="#00C5FF"/>
</svg>
